X: 4
T: The Barren Rocks Of Aden
R: polka
M: 2/4
L: 1/8
K: Dmaj
|:d/e/|f>g fe|df Ad|ce A/A/e|fA de|f>g fe|df Ad|ce A/A/e|d2 d:||||f/g/|a>f df|ef Ae/f/|ge ce|df Af/g/|a>f df|ef Ae/f/|ge ce|d2 df/g/|a/f/d/f/ a/f/d/f/|ef Ae/f/|g/e/c/e/ g/e/c/e/|df Af/g/|a/f/d/f/ a/f/d/f/|ef Ae/f/|ge ce|d2 d||


Tune 3640	Setting 29586

